src/assets/Question.svg

<svg width="10" height="16" viewBox="0 0 10 16" fill="none" xmlns="http://www.w3.org/2000/svg">
<path fill-rule="evenodd" clip-rule="evenodd" d="M3.65781 3.69641C3.3868 3.98204 3.1998 4.42151 3.1998 5.00005C3.1998 5.66279 2.66255 6.20005 1.9998 6.20005C1.33706 6.20005 0.799805 5.66279 0.799805 5.00005C0.799805 3.89964 1.16281 2.83912 1.9168 2.04447C2.68017 1.23995 3.75765 0.800049 4.9998 0.800049C6.24196 0.800049 7.31944 1.23995 8.08281 2.04447C8.83679 2.83912 9.19981 3.89964 9.19981 5.00005C9.19981 5.93127 8.93773 6.67282 8.51885 7.28008C8.12594 7.84971 7.61934 8.259 7.25165 8.55458C6.44164 9.20572 6.1998 9.43328 6.1998 10C6.1998 10.6628 5.66255 11.2 4.9998 11.2C4.33706 11.2 3.7998 10.6628 3.7998 10C3.7998 8.23451 4.93026 7.33499 5.63573 6.77363C5.67432 6.74292 5.71217 6.71281 5.74796 6.68403C6.13027 6.37671 6.37367 6.16322 6.54326 5.91736C6.68688 5.70915 6.7998 5.44251 6.7998 5.00005C6.7998 4.42151 6.61281 3.98204 6.3418 3.69641C6.08017 3.42068 5.65765 3.20005 4.9998 3.20005C4.34196 3.20005 3.91944 3.42068 3.65781 3.69641ZM4.9998 15.2C5.66255 15.2 6.1998 14.6628 6.1998 14C6.1998 13.3373 5.66255 12.8 4.9998 12.8C4.33706 12.8 3.7998 13.3373 3.7998 14C3.7998 14.6628 4.33706 15.2 4.9998 15.2Z" fill="white"/>
</svg>

<svg xmlns="http://www.w3.org/2000/svg" width="10" height="16" fill="none"><path fill="#fff" fill-rule="evenodd" d="M3.658 3.696C3.387 3.982 3.2 4.422 3.2 5A1.2 1.2 0 1 1 .8 5c0-1.1.363-2.16 1.117-2.956C2.68 1.24 3.757.8 5 .8c1.242 0 2.32.44 3.083 1.244C8.837 2.84 9.2 3.9 9.2 5c0 .931-.262 1.673-.681 2.28-.393.57-.9.979-1.267 1.275-.81.65-1.052.878-1.052 1.445a1.2 1.2 0 1 1-2.4 0c0-1.765 1.13-2.665 1.836-3.226l.112-.09c.382-.307.626-.52.795-.767.144-.208.257-.474.257-.917 0-.578-.187-1.018-.458-1.304C6.08 3.421 5.658 3.2 5 3.2s-1.08.22-1.342.496M5 15.2a1.2 1.2 0 1 0 0-2.4 1.2 1.2 0 0 0 0 2.4" clip-rule="evenodd"/></svg>
